!!!OTL: WAS PERLET IM GLASE
!!!ARE: Europa, Mitteleuropa, Deutschland
!!!SCT: F0726
!!!YEM: Copyright 1995, estate of Helmut Schaffrath.
**kern
*ICvox
*Ivox
*M3/4
*k[]
*C:
{4G
=1
8c
8B
8c
8d
8e
8f
=2
4g
8f
8e}
{8d
8c
=3
8B
8d
4f
8A
8B
=4
8c
8e
4G}
{8B
8c
=5
4d
8d
8c#
4d
=6
4g
8f#
8e}
{8d
8c#
=7
4d
4B
4A
=8
8A
8B
4B}
{4G
=9
4.G
8A
4G
=10
4c
8e
8B}
{8c
8A
=11
8G
8A
8B
8c
4d
=12
2e}
{4d
=13
4.d
8e
4d
=14
8g
8d#
8e
8B}
{8c
8A
=15
4G
4B
4A
=16
2G
4r}
=17
{8G
8A
8B
8c
8d
8e
=18
2f}
{4e
=19
4.f
8d
8c
8B
=20
8c
8e
4G}
{8e
8c
=21
8B
8d
4g
4f
=22
2e}
{4e
=23
4e
4e
4e
=24
4g
4f}
{8e
8d
=25
4c
4d
4B
=26
2c}
{4e
=27
4.f
8d
8c
8B
=28
8c
8e
4G}
{8e
8c
=29
8B
8d
4g
4f
=30
2e}
{4e
=31
4e
4e
4e
=32
4g
4f}
{8e
8d
=33
4c
4d
4B
=34
2c}
==
!!!AGN: Geselligkeits -, Trink - Lied, Rundgesang
!!!ONB: ESAC (Essen Associative Code) Database: FINK
!!!AMT: simple triple
!!!AIN: vox
!!!EED: Helmut Schaffrath
!!!EEV: 1.0
*-
